SVG_Azure_Grouped/Networking/ExpressRoute Filter.svg

<?xml version="1.0" encoding="UTF-8" standalone="no"?>
<!-- Generated by Microsoft Visio, SVG Export ExpressRoute Filter.svg Page-1 -->

<svg
   xmlns:dc="http://purl.org/dc/elements/1.1/"
   xmlns:cc="http://creativecommons.org/ns#"
   xmlns:rdf="http://www.w3.org/1999/02/22-rdf-syntax-ns#"
   xmlns:svg="http://www.w3.org/2000/svg"
   xmlns="http://www.w3.org/2000/svg"
   xmlns:sodipodi="http://sodipodi.sourceforge.net/DTD/sodipodi-0.dtd"
   xmlns:inkscape="http://www.inkscape.org/namespaces/inkscape"
   width="0.78742641in"
   height="0.70862669in"
   viewBox="0 0 56.6947 51.02104"
   xml:space="preserve"
   class="st5"
   version="1.1"
   id="svg49"
   sodipodi:docname="ExpressRoute Filter.svg"
   style="font-size:12px;overflow:visible;color-interpolation-filters:sRGB;fill:none;fill-rule:evenodd;stroke-linecap:square;stroke-miterlimit:3"
   inkscape:version="0.92.5 (2060ec1f9f, 2020-04-08)"><metadata
   id="metadata55"><rdf:RDF><cc:Work
       rdf:about=""><dc:format>image/svg+xml</dc:format><dc:type
         rdf:resource="http://purl.org/dc/dcmitype/StillImage" /></cc:Work></rdf:RDF></metadata><defs
   id="defs53" /><sodipodi:namedview
   pagecolor="#ffffff"
   bordercolor="#666666"
   borderopacity="1"
   objecttolerance="10"
   gridtolerance="10"
   guidetolerance="10"
   inkscape:pageopacity="0"
   inkscape:pageshadow="2"
   inkscape:window-width="640"
   inkscape:window-height="480"
   id="namedview51"
   showgrid="false"
   inkscape:zoom="1.963572"
   inkscape:cx="37.795281"
   inkscape:cy="14.737934"
   inkscape:window-x="0"
   inkscape:window-y="0"
   inkscape:window-maximized="0"
   inkscape:current-layer="svg49" />
	<style
   type="text/css"
   id="style2">
	<![CDATA[
		.st1 {fill:#804998;stroke:none;stroke-linecap:butt;stroke-width:0.917452}
		.st2 {fill:#7fba00;stroke:none;stroke-linecap:butt;stroke-width:0.917452}
		.st3 {fill:#ffffff;fill-opacity:0.2;stroke:none;stroke-linecap:butt;stroke-width:0.917452}
		.st4 {fill:#ffffff;stroke:none;stroke-linecap:butt;stroke-width:0.917452}
		.st5 {fill:none;fill-rule:evenodd;font-size:12px;overflow:visible;stroke-linecap:square;stroke-miterlimit:3}
	]]>
	</style>

	<g
   id="g47"
   transform="translate(-5.66929,-5.1032495)">
		<title
   id="title4">Page-1</title>
		<g
   id="group17996-1"
   transform="translate(5.66929,-34.0157)">
			<title
   id="title6">ExpressRoute Filter.17996</title>
			<g
   id="group17997-2">
				<title
   id="title8">g18</title>
				<g
   id="shape17998-3"
   transform="translate(34.6595)">
					<title
   id="title10">path4</title>
					<path
   d="M 12.56,78.38 9.75,90.14 0,83.95 Z"
   class="st1"
   id="path12"
   inkscape:connector-curvature="0"
   style="fill:#804998;stroke:none;stroke-width:0.91745198;stroke-linecap:butt" />
				</g>
				<g
   id="shape17999-5"
   transform="translate(26.0847,-2.02112)">
					<title
   id="title15">path6</title>
					<path
   d="m 1.13,67.87 c 0,0 -0.54,1.04 -1.13,1.21 7.47,0 12.35,13.3 15.26,21.06 l 3.77,-1.17 C 16.06,80.55 12.46,67.87 1.13,67.87 Z M 21.14,52.91 18.32,41.14 8.57,47.33 Z"
   class="st1"
   id="path17"
   inkscape:connector-curvature="0"
   style="fill:#804998;stroke:none;stroke-width:0.91745198;stroke-linecap:butt" />
				</g>
				<g
   id="shape18000-7"
   transform="translate(26.0847,-18.2241)">
					<title
   id="title20">path8</title>
					<path
   d="m 1.13,81.64 c 0,0 -0.54,-1.05 -1.13,-1.22 7.47,0 12.35,-13.3 15.26,-21.06 l 3.77,1.17 c -2.97,8.43 -6.57,21.11 -17.9,21.11 z m 20.42,-6.07 9.06,7.28 -9.06,7.29 z"
   class="st1"
   id="path22"
   inkscape:connector-curvature="0"
   style="fill:#804998;stroke:none;stroke-width:0.91745198;stroke-linecap:butt" />
				</g>
				<g
   id="shape18001-9"
   transform="translate(23.7906,-23.0777)">
					<title
   id="title25">path10</title>
					<rect
   x="0"
   y="85.278397"
   width="27.4203"
   height="4.8633299"
   class="st1"
   id="rect27"
   style="fill:#804998;stroke:none;stroke-width:0.91745198;stroke-linecap:butt" />
				</g>
				<g
   id="shape18002-11"
   transform="translate(0,-9.71693)">
					<title
   id="title30">path12</title>
					<path
   d="m 5.39,90.14 h 16.13 a 5.38573,5.77429 -180 0 0 5.39,-5.77 V 64.33 A 5.38573,5.77429 -180 0 0 21.52,58.56 H 5.39 A 5.3846,5.77307 -180 0 0 0,64.33 v 20.04 a 5.3846,5.77307 -180 0 0 5.39,5.77 z"
   class="st2"
   id="path32"
   inkscape:connector-curvature="0"
   style="fill:#7fba00;stroke:none;stroke-width:0.91745198;stroke-linecap:butt" />
				</g>
				<g
   id="shape18003-13"
   transform="translate(0,-9.71693)">
					<title
   id="title35">path14</title>
					<path
   d="M 5.39,90.14 21.52,58.56 H 5.39 A 5.3846,5.77307 -180 0 0 0,64.33 v 20.04 a 5.3846,5.77307 -180 0 0 5.39,5.77 z"
   class="st3"
   id="path37"
   inkscape:connector-curvature="0"
   style="fill:#ffffff;fill-opacity:0.2;stroke:none;stroke-width:0.91745198;stroke-linecap:butt" />
				</g>
				<g
   id="shape18004-15"
   transform="translate(4.53154,-14.5754)">
					<title
   id="title40">path16</title>
					<path
   d="m 11.33,75.56 h 6.8 v 7.29 h -6.8 z M 0,68.28 h 6.8 v 7.29 H 0 Z m 0,14.57 h 6.8 v 7.29 H 0 Z"
   class="st4"
   id="path42"
   inkscape:connector-curvature="0"
   style="fill:#ffffff;stroke:none;stroke-width:0.91745198;stroke-linecap:butt" />
				</g>
			</g>
		</g>
	</g>
</svg>

<?xml version="1.0" encoding="UTF-8" standalone="no"?>
<!DOCTYPE svg PUBLIC "-//W3C//DTD SVG 1.1//EN" "http://www.w3.org/Graphics/SVG/1.1/DTD/svg11.dtd">
<!-- Generated by Microsoft Visio, SVG Export ExpressRoute Filter.svg Page-1 -->
<svg xmlns="http://www.w3.org/2000/svg" xmlns:xlink="http://www.w3.org/1999/xlink" xmlns:ev="http://www.w3.org/2001/xml-events"
		width="0.944882in" height="1.25197in" viewBox="0 0 68.0315 90.1417" xml:space="preserve" color-interpolation-filters="sRGB"
		class="st5">
	<style type="text/css">
	<![CDATA[
		.st1 {fill:#804998;stroke:none;stroke-linecap:butt;stroke-width:0.917452}
		.st2 {fill:#7fba00;stroke:none;stroke-linecap:butt;stroke-width:0.917452}
		.st3 {fill:#ffffff;fill-opacity:0.2;stroke:none;stroke-linecap:butt;stroke-width:0.917452}
		.st4 {fill:#ffffff;stroke:none;stroke-linecap:butt;stroke-width:0.917452}
		.st5 {fill:none;fill-rule:evenodd;font-size:12px;overflow:visible;stroke-linecap:square;stroke-miterlimit:3}
	]]>
	</style>

	<g>
		<title>Page-1</title>
		<g id="group17582-1" transform="translate(5.66929,-34.0157)">
			<title>ExpressRoute Filter.17582</title>
			<g id="group17583-2">
				<title>g18</title>
				<g id="shape17584-3" transform="translate(34.6595,2.70006E-13)">
					<title>path4</title>
					<path d="M12.56 78.38 L9.75 90.14 L0 83.95 L12.56 78.38 Z" class="st1"/>
				</g>
				<g id="shape17585-5" transform="translate(26.0847,-2.02112)">
					<title>path6</title>
					<path d="M1.13 67.87 C1.13 67.87 0.59 68.91 0 69.08 C7.47 69.08 12.35 82.38 15.26 90.14 L19.03 88.97 C16.06 80.55
								 12.46 67.87 1.13 67.87 ZM21.14 52.91 L18.32 41.14 L8.57 47.33 L21.14 52.91 Z" class="st1"/>
				</g>
				<g id="shape17586-7" transform="translate(26.0847,-18.2241)">
					<title>path8</title>
					<path d="M1.13 81.64 C1.13 81.64 0.59 80.59 0 80.42 C7.47 80.42 12.35 67.12 15.26 59.36 L19.03 60.53 C16.06 68.96
								 12.46 81.64 1.13 81.64 ZM21.55 75.57 L30.61 82.85 L21.55 90.14 L21.55 75.57 Z" class="st1"/>
				</g>
				<g id="shape17587-9" transform="translate(23.7906,-23.0777)">
					<title>path10</title>
					<rect x="0" y="85.2784" width="27.4203" height="4.86333" class="st1"/>
				</g>
				<g id="shape17588-11" transform="translate(2.81775E-13,-9.71693)">
					<title>path12</title>
					<path d="M5.39 90.14 L21.52 90.14 A5.38573 5.77429 -180 0 0 26.91 84.37 L26.91 64.33 A5.38573 5.77429 -180 0
								 0 21.52 58.56 L5.39 58.56 A5.3846 5.77307 -180 0 0 0 64.33 L0 84.37 A5.3846 5.77307 -180 0 0 5.39
								 90.14 Z" class="st2"/>
				</g>
				<g id="shape17589-13" transform="translate(-2.8777E-13,-9.71693)">
					<title>path14</title>
					<path d="M5.39 90.14 L21.52 58.56 L5.39 58.56 A5.3846 5.77307 -180 0 0 -0 64.33 L0 84.37 A5.3846 5.77307 -180
								 0 0 5.39 90.14 Z" class="st3"/>
				</g>
				<g id="shape17590-15" transform="translate(4.53154,-14.5754)">
					<title>path16</title>
					<path d="M11.33 75.56 L18.13 75.56 L18.13 82.85 L11.33 82.85 L11.33 75.56 ZM0 68.28 L6.8 68.28 L6.8 75.57 L0
								 75.57 L0 68.28 ZM0 82.85 L6.8 82.85 L6.8 90.14 L0 90.14 L0 82.85 Z" class="st4"/>
				</g>
			</g>
		</g>
	</g>
</svg>
